X:1
T:Ave Maria (after Bach)
C:Charles Gounod
M:4/4
L:1/4
Q:1/4=60
K:C
% A section — soprano melody over implied Bach BWV 846 (Prelude in C major) accompaniment. Range G4–D5.
G | A3 B | c3 B | A2 G2 | G3 A |
B3 c | d2 c B | A G A2 | G4 |
G A B c | d3 c | B A G A | G4 |]
